images/icons/social-facebook.svg

<svg xmlns="http://www.w3.org/2000/svg" width="16" height="16" viewBox="0 0 16 16" aria-hidden="true" focusable="false"><g fill-rule="evenodd"><rect fill="none" stroke="none" x="0" y="0" width="16" height="16"></rect><path fill="currentColor" stroke="none" d="M15.999 8.049c0-4.445-3.582-8.049-8-8.049S0 3.604 0 8.049C0 12.066 2.925 15.396 6.75 16v-5.624H4.717V8.049H6.75V6.276c0-2.018 1.195-3.132 3.022-3.132.875 0 1.79.157 1.79.157v1.981h-1.008c-.994 0-1.304.62-1.304 1.257v1.51h2.219l-.355 2.327H9.25V16c3.825-.604 6.75-3.934 6.75-7.951z"></path></g></svg>

<svg width="16" height="16" viewBox="0 0 16 16" xmlns="http://www.w3.org/2000/svg"
  aria-hidden="true" focusable="false">
  <g fill-rule="evenodd">
    <rect fill="none" x="0" y="0" width="16" height="16"></rect>
    <path fill-rule="evenodd" clip-rule="evenodd"
      d="M15.999 8.049C15.999 3.604 12.417 0 7.999 0C3.581 0 0 3.604 0 8.049C0 12.066 2.925 15.396 6.75 16V10.376H4.717V8.049H6.75V6.276C6.75 4.258 7.945 3.144 9.772 3.144C10.647 3.144 11.562 3.301 11.562 3.301V5.282H10.554C9.56 5.282 9.25 5.902 9.25 6.539V8.049H11.469L11.114 10.376H9.25V16C13.075 15.396 16 12.066 16 8.049H15.999Z"
      fill="currentColor" />
  </g>
</svg>
